public/ship.svg

<svg width="462" height="290" viewBox="0 0 462 290" fill="none" xmlns="http://www.w3.org/2000/svg">
<g clip-path="url(#clip0_897_8596)">
<path d="M138.382 281.218L97.5448 220.943C97.5448 220.943 176.162 189.323 227.842 172.864C281.08 155.909 366.037 135.835 366.037 135.835C366.037 135.835 391.254 129.902 396.968 140.713C402.363 150.923 402.678 182.568 393.657 189.777C371.969 207.108 324.814 226.463 278.112 243.777C225.142 263.415 138.382 281.218 138.382 281.218Z" fill="url(#paint0_linear_897_8596)"/>
<path d="M130.675 258.596L97.2459 219.827C97.2459 219.827 175.863 188.207 227.543 171.748C280.781 154.793 365.738 134.719 365.738 134.719C365.738 134.719 390.955 128.785 396.669 139.597C402.064 149.806 394.971 159.946 385.95 167.155C364.262 184.487 317.107 203.842 270.405 221.156C217.435 240.794 130.675 258.596 130.675 258.596Z" fill="#F173B4"/>
<path d="M394.722 138.473L451.175 78.911M441.691 111.076L417.916 96.0515" stroke="#E199BE" stroke-width="3.17934" stroke-linecap="round" stroke-linejoin="round"/>
<path d="M428.363 98.1898L294.466 46.8431C294.466 46.8431 324.004 65.8995 329.459 109.879C331.517 126.468 329.408 152.682 329.408 152.682L428.363 98.1898Z" fill="#D9D9D9"/>
<path d="M301.196 194.803L208.787 157.025C208.787 157.025 213.074 130.44 211.909 113.399C209.172 73.3703 171.757 18.8301 171.757 18.8301L255.115 22.8263C255.115 22.8263 316.508 82.5118 317.095 131.296C317.402 156.86 301.196 194.803 301.196 194.803Z" fill="#D9D9D9"/>
<path d="M185.878 10.1094L235.662 195.905L254.088 190.968L193.555 8.05219L185.878 10.1094Z" fill="#E199BE"/>
<path d="M58.1975 190.792C71.5129 183.88 87.8641 166.385 87.8641 166.385L89.3996 165.974L102.948 191.967C102.948 191.967 83.6914 207.659 68.9755 212.59C55.9057 216.97 47.4664 214.282 33.9602 217.035C23.011 219.268 6.32113 224.441 6.32113 224.441C6.32113 224.441 11.9844 208.132 19.8099 201.078C31.338 190.687 44.4225 197.942 58.1975 190.792Z" fill="#DB476F"/>
<path d="M187.79 238.356L132.139 253.267L105.747 220.841L99.1636 196.273L123.35 212.833L177.257 199.047L187.79 238.356Z" fill="#E199BE"/>
<path d="M143.282 182.806L99.1634 196.273L121.814 213.244L177.092 198.433L143.282 182.806Z" fill="#F173B4"/>
<path fill-rule="evenodd" clip-rule="evenodd" d="M272.001 100C272.001 103.866 268.867 107 265.001 107C264.713 107 264.43 106.983 264.152 106.949C263.582 107.688 262.912 108.548 262.193 109.45C260.211 111.939 257.598 115.089 255.788 116.651C253.254 118.839 249.749 120.979 247.027 122.512C246.29 122.927 245.595 123.306 244.971 123.64C244.648 127.206 241.65 130 238 130C234.134 130 231 126.866 231 123C231 119.134 234.134 116 238 116C239.5 116 240.889 116.472 242.028 117.274C242.515 117.012 243.041 116.723 243.591 116.413C246.241 114.92 249.236 113.06 251.214 111.352C252.437 110.296 254.641 107.695 256.718 105.088C257.388 104.247 258.018 103.44 258.558 102.74C258.199 101.899 258.001 100.972 258.001 100C258.001 96.134 261.135 93 265.001 93C268.867 93 272.001 96.134 272.001 100ZM268.001 100C268.001 101.657 266.658 103 265.001 103C263.344 103 262.001 101.657 262.001 100C262.001 98.3431 263.344 97 265.001 97C266.658 97 268.001 98.3431 268.001 100ZM238 126C239.657 126 241 124.657 241 123C241 121.343 239.657 120 238 120C236.343 120 235 121.343 235 123C235 124.657 236.343 126 238 126Z" fill="#E199BE"/>
<path fill-rule="evenodd" clip-rule="evenodd" d="M234.999 99.4222C234.999 103.521 238.19 106.844 242.126 106.844C243.037 106.844 243.908 106.667 244.709 106.342C245.186 106.595 245.72 106.884 246.286 107.201C248.413 108.391 250.764 109.853 252.294 111.182C255.058 113.583 257.756 117.832 259.871 121.862C259.316 122.919 259 124.132 259 125.422C259 129.521 262.191 132.844 266.127 132.844C270.063 132.844 273.254 129.521 273.254 125.422C273.254 121.323 270.063 118 266.127 118C265.962 118 265.799 118.006 265.637 118.017C263.457 113.945 260.363 108.996 256.706 105.819C254.596 103.986 251.711 102.234 249.51 101.002C249.383 100.93 249.257 100.86 249.132 100.791C249.212 100.348 249.254 99.89 249.254 99.4222C249.254 95.323 246.063 92 242.126 92C238.19 92 234.999 95.323 234.999 99.4222ZM239.073 99.4221C239.073 101.179 240.44 102.603 242.127 102.603C243.814 102.603 245.181 101.179 245.181 99.4221C245.181 97.6653 243.814 96.2412 242.127 96.2412C240.44 96.2412 239.073 97.6653 239.073 99.4221ZM266.054 128.362C264.368 128.362 263 126.938 263 125.181C263 123.424 264.368 122 266.054 122C267.741 122 269.109 123.424 269.109 125.181C269.109 126.938 267.741 128.362 266.054 128.362Z" fill="#E199BE"/>
<path d="M228.853 59.274C227.893 59.4484 226.944 59.613 226.268 60.4023C225.592 61.1917 224.058 63.6725 224.007 64.5836C223.919 66.1306 224.727 66.3724 225.622 67.5039C228.801 71.5262 233.948 75.3684 237 79.5C239.119 82.3685 239.13 85.8833 242.026 88.1781C244.422 90.0763 247.115 91.3246 250.247 91.6958C253.802 92.1172 257.245 92.2492 260.692 91.0984C261.438 90.8495 263.931 89.9673 263.995 89.0078C264.082 87.6959 263.067 84.0265 262.954 83.5986C262.04 80.1573 260.351 74.4597 259.113 71.1211C257.835 67.6773 256.89 65.699 253.8 63.754C248.409 60.3594 241.903 59.8385 235.601 59.2077C233.316 58.9789 231.124 58.8615 228.853 59.274Z" fill="#E199BE"/>
</g>
<defs>
<linearGradient id="paint0_linear_897_8596" x1="196.853" y1="297.323" x2="191.803" y2="217.78" gradientUnits="userSpaceOnUse">
<stop stop-color="#FEB8DC"/>
<stop offset="1" stop-color="#E199BE"/>
</linearGradient>
<clipPath id="clip0_897_8596">
<rect width="462" height="290" fill="white"/>
</clipPath>
</defs>
</svg>

<svg xmlns="http://www.w3.org/2000/svg" width="462" height="290" fill="none"><g clip-path="url(#a)"><path fill="url(#b)" d="m138.382 281.218-40.837-60.275s78.617-31.62 130.297-48.079c53.238-16.955 138.195-37.029 138.195-37.029s25.217-5.933 30.931 4.878c5.395 10.21 5.71 41.855-3.311 49.064-21.688 17.331-68.843 36.686-115.545 54-52.97 19.638-139.73 37.441-139.73 37.441"/><path fill="#F173B4" d="m130.675 258.596-33.43-38.769s78.618-31.62 130.298-48.079c53.238-16.955 138.195-37.029 138.195-37.029s25.217-5.934 30.931 4.878c5.395 10.209-1.698 20.349-10.719 27.558-21.688 17.332-68.843 36.687-115.545 54.001-52.97 19.638-139.73 37.44-139.73 37.44"/><path stroke="#E199BE" stroke-linecap="round" stroke-linejoin="round" stroke-width="3.179" d="m394.722 138.473 56.453-59.562m-9.484 32.165-23.775-15.024"/><path fill="#D9D9D9" d="M428.363 98.19 294.466 46.843s29.538 19.057 34.993 63.036c2.058 16.589-.051 42.803-.051 42.803z"/><path fill="#D9D9D9" d="m301.196 194.803-92.409-37.778s4.287-26.585 3.122-43.626c-2.737-40.029-40.152-94.569-40.152-94.569l83.358 3.996s61.393 59.686 61.98 108.47c.307 25.564-15.899 63.507-15.899 63.507"/><path fill="#E199BE" d="m185.878 10.11 49.784 185.795 18.426-4.937L193.555 8.052z"/><path fill="#DB476F" d="M58.198 190.792c13.315-6.912 29.666-24.407 29.666-24.407l1.536-.411 13.548 25.993s-19.257 15.692-33.972 20.623c-13.07 4.38-21.51 1.692-35.016 4.445-10.949 2.233-27.639 7.406-27.639 7.406s5.663-16.309 13.489-23.363c11.528-10.391 24.613-3.136 38.388-10.286"/><path fill="#E199BE" d="m187.79 238.356-55.651 14.911-26.392-32.426-6.583-24.568 24.186 16.56 53.907-13.786z"/><path fill="#F173B4" d="m143.282 182.806-44.119 13.467 22.651 16.971 55.278-14.811z"/><path fill="#E199BE" fill-rule="evenodd" d="M272.001 100a7 7 0 0 1-7.849 6.949c-.57.739-1.24 1.599-1.959 2.501-1.982 2.489-4.595 5.639-6.405 7.201-2.534 2.188-6.039 4.328-8.761 5.861-.737.415-1.432.794-2.056 1.128a7 7 0 1 1-2.943-6.366 91 91 0 0 0 1.563-.861c2.65-1.493 5.645-3.353 7.623-5.061 1.223-1.056 3.427-3.657 5.504-6.264.67-.841 1.3-1.648 1.84-2.348a7 7 0 1 1 13.443-2.74m-4 0a3 3 0 1 1-6 0 3 3 0 0 1 6 0M238 126a3 3 0 1 0 0-6 3 3 0 0 0 0 6" clip-rule="evenodd"/><path fill="#E199BE" fill-rule="evenodd" d="M234.999 99.422c0 4.099 3.191 7.422 7.127 7.422a6.9 6.9 0 0 0 2.583-.502c.477.253 1.011.542 1.577.859 2.127 1.19 4.478 2.652 6.008 3.981 2.764 2.401 5.462 6.65 7.577 10.68a7.64 7.64 0 0 0-.871 3.56c0 4.099 3.191 7.422 7.127 7.422s7.127-3.323 7.127-7.422-3.191-7.422-7.127-7.422q-.247 0-.49.017c-2.18-4.072-5.274-9.021-8.931-12.198-2.11-1.833-4.995-3.585-7.196-4.817l-.378-.211q.121-.666.122-1.369c0-4.099-3.191-7.422-7.128-7.422-3.936 0-7.127 3.323-7.127 7.422m4.074 0c0 1.757 1.367 3.181 3.054 3.181s3.054-1.424 3.054-3.18c0-1.758-1.367-3.182-3.054-3.182s-3.054 1.424-3.054 3.181m26.981 28.94c-1.686 0-3.054-1.424-3.054-3.181s1.368-3.181 3.054-3.181c1.687 0 3.055 1.424 3.055 3.181s-1.368 3.181-3.055 3.181" clip-rule="evenodd"/><path fill="#E199BE" d="M228.853 59.274c-.96.174-1.909.339-2.585 1.128-.676.79-2.21 3.27-2.261 4.182-.088 1.547.72 1.788 1.615 2.92 3.179 4.022 8.326 7.864 11.378 11.996 2.119 2.868 2.13 6.383 5.026 8.678 2.396 1.898 5.089 3.147 8.221 3.518 3.555.421 6.998.553 10.445-.598.746-.248 3.239-1.13 3.303-2.09.087-1.312-.928-4.981-1.041-5.41-.914-3.44-2.603-9.138-3.841-12.477-1.278-3.444-2.223-5.422-5.313-7.367-5.391-3.395-11.897-3.915-18.199-4.546-2.285-.23-4.477-.346-6.748.066"/></g><defs><linearGradient id="b" x1="196.853" x2="191.803" y1="297.323" y2="217.78" gradientUnits="userSpaceOnUse"><stop stop-color="#FEB8DC"/><stop offset="1" stop-color="#E199BE"/></linearGradient><clipPath id="a"><path fill="#fff" d="M0 0h462v290H0z"/></clipPath></defs></svg>
